assets/svg/1F62B.svg

<svg xmlns="http://www.w3.org/2000/svg" viewBox="0 0 64 64" enable-background="new 0 0 64 64"><circle fill="#fbb041" cx="31.813" cy="31.812" r="31.813"/><g opacity=".987"><path fill="#e79d3c" d="m15.14 41.01c-5.637-12.09-5.89-25.11-.792-35.876-8.639 5.686-14.348 15.458-14.348 26.574 0 17.572 14.242 31.812 31.812 31.812.314 0 .619-.039.931-.047-7.292-6.137-13.438-13.525-17.603-22.463"/></g><path fill="#633d19" d="m50.2 51.42c0 7.431-10.03-.896-18.883-.896-8.857 0-18.885 8.326-18.885.896 0-7.427 10.03-15.458 18.885-15.458 8.855 0 18.883 8.03 18.883 15.458"/><path fill="#fff" d="m44.866 43.601c-3.207-3.796-8.584-6.707-13.553-6.707-4.971 0-10.348 2.911-13.555 6.707h27.11"/><g fill="#633d19"><path d="m11.01 14.649c5.919.413 11.287-2.02 15-6.625 1.613-2-1.216-4.865-2.845-2.845-3.118 3.866-7.177 5.792-12.158 5.446-2.59-.177-2.573 3.847.0001 4.02"/><path d="m53.33 14.649c-5.92.413-11.287-2.02-15-6.625-1.612-2 1.217-4.865 2.845-2.845 3.118 3.866 7.178 5.792 12.158 5.446 2.592-.177 2.573 3.847 0 4.02"/><path d="m29.06 27.356c-3.065-5.04-9.281-8.136-15.175-8.318-2.038-.063-2.032 3.037 0 3.1 2.829.086 5.776 1.036 8.24 2.631-.122.204-.285 2.558-.204 2.749-2.894.344-5.806.591-8.653 1.257-1.98.464-1.14 3.454.841 2.99 4.609-1.083 9.394-1.049 14.01-2.131.99-.232 1.452-1.437.943-2.278"/><path d="m35.459 29.634c4.615 1.083 9.397 1.049 14.01 2.131 1.978.464 2.819-2.526.841-2.99-2.848-.666-5.759-.914-8.655-1.257.083-.19-.082-2.544-.202-2.749 2.462-1.595 5.411-2.544 8.238-2.631 2.031-.063 2.039-3.163 0-3.1-5.893.183-12.11 3.277-15.174 8.318-.509.841-.049 2.046.943 2.278"/></g></svg>

<?xml version="1.0" encoding="UTF-8" standalone="no"?>
<!-- Generator: Adobe Illustrator 16.0.0, SVG Export Plug-In . SVG Version: 6.00 Build 0)  -->

<svg
   xmlns:dc="http://purl.org/dc/elements/1.1/"
   xmlns:cc="http://creativecommons.org/ns#"
   xmlns:rdf="http://www.w3.org/1999/02/22-rdf-syntax-ns#"
   xmlns:svg="http://www.w3.org/2000/svg"
   xmlns="http://www.w3.org/2000/svg"
   xmlns:sodipodi="http://sodipodi.sourceforge.net/DTD/sodipodi-0.dtd"
   xmlns:inkscape="http://www.inkscape.org/namespaces/inkscape"
   version="1.1"
   id="Layer_1"
   x="0px"
   y="0px"
   width="64px"
   height="64px"
   viewBox="0 0 64 64"
   enable-background="new 0 0 64 64"
   xml:space="preserve"
   inkscape:version="0.48.5 r10040"
   sodipodi:docname="1F62B.svg"
   inkscape:export-filename="D:\TESTINGEMOJI\SVGTEST\1F62B.png"
   inkscape:export-xdpi="90"
   inkscape:export-ydpi="90"><metadata
   id="metadata4515"><rdf:RDF><cc:Work
       rdf:about=""><dc:format>image/svg+xml</dc:format><dc:type
         rdf:resource="http://purl.org/dc/dcmitype/StillImage" /><dc:title></dc:title></cc:Work></rdf:RDF></metadata><defs
   id="defs4513" /><sodipodi:namedview
   pagecolor="#ffffff"
   bordercolor="#666666"
   borderopacity="1"
   objecttolerance="10"
   gridtolerance="10"
   guidetolerance="10"
   inkscape:pageopacity="0"
   inkscape:pageshadow="2"
   inkscape:window-width="640"
   inkscape:window-height="480"
   id="namedview4511"
   showgrid="false"
   inkscape:zoom="3.6875"
   inkscape:cx="32"
   inkscape:cy="32"
   inkscape:window-x="508"
   inkscape:window-y="306"
   inkscape:window-maximized="0"
   inkscape:current-layer="Layer_1" />
<g
   id="g4483">
	<g
   id="g4485">
		<g
   id="g4487">
			<circle
   fill="#FBB041"
   cx="31.813"
   cy="31.812"
   r="31.813"
   id="circle4489" />
		</g>
	</g>
	<g
   opacity="0.9866"
   id="g4491">
		<g
   id="g4493">
			<g
   id="g4495">
				<path
   fill="#E79D3C"
   d="M15.14,41.012C9.503,28.917,9.25,15.898,14.348,5.136C5.709,10.822,0,20.594,0,31.71      c0,17.572,14.242,31.812,31.812,31.812c0.314,0,0.619-0.039,0.931-0.047C25.451,57.338,19.305,49.95,15.14,41.012z"
   id="path4497" />
			</g>
		</g>
	</g>
	<path
   fill="#633D19"
   d="M50.196,51.416c0,7.431-10.028-0.896-18.883-0.896c-8.857,0-18.885,8.326-18.885,0.896   c0-7.427,10.028-15.458,18.885-15.458C40.168,35.958,50.196,43.989,50.196,51.416z"
   id="path4499" />
	<path
   fill="#FFFFFF"
   d="M44.866,43.601c-3.207-3.796-8.584-6.707-13.553-6.707c-4.971,0-10.348,2.911-13.555,6.707H44.866z"
   id="path4501" />
	<path
   fill="#633D19"
   d="M11.012,14.649c5.919,0.413,11.287-2.016,15.002-6.625c1.613-2-1.216-4.865-2.845-2.845   c-3.118,3.866-7.177,5.792-12.158,5.446C8.421,10.448,8.438,14.472,11.012,14.649z"
   id="path4503" />
	<path
   fill="#633D19"
   d="M53.33,14.649c-5.92,0.413-11.287-2.016-15.003-6.625c-1.612-2,1.217-4.865,2.845-2.845   c3.118,3.866,7.178,5.792,12.158,5.446C55.922,10.448,55.903,14.472,53.33,14.649z"
   id="path4505" />
	<path
   fill="#633D19"
   d="M29.056,27.356c-3.065-5.042-9.281-8.136-15.175-8.318c-2.038-0.063-2.032,3.037,0,3.1   c2.829,0.086,5.776,1.036,8.24,2.631c-0.122,0.204-0.285,2.558-0.204,2.749c-2.894,0.344-5.806,0.591-8.653,1.257   c-1.98,0.464-1.14,3.454,0.841,2.99c4.609-1.083,9.394-1.049,14.008-2.131C29.103,29.402,29.565,28.197,29.056,27.356z"
   id="path4507" />
	<path
   fill="#633D19"
   d="M35.459,29.634c4.615,1.083,9.397,1.049,14.009,2.131c1.978,0.464,2.819-2.526,0.841-2.99   c-2.848-0.666-5.759-0.914-8.655-1.257c0.083-0.19-0.082-2.544-0.202-2.749c2.462-1.595,5.411-2.544,8.238-2.631   c2.031-0.063,2.039-3.163,0-3.1c-5.893,0.183-12.108,3.277-15.174,8.318C34.007,28.197,34.467,29.402,35.459,29.634z"
   id="path4509" />
</g>
</svg>
